app/component-library/components/Icons/Icon/assets/data.svg

<svg width="24" height="24" viewBox="0 0 24 24" fill="none" xmlns="http://www.w3.org/2000/svg">
<path d="M20.2812 14.25C21.5239 14.25 22.5312 13.2426 22.5312 12C22.5312 10.7574 21.5239 9.75 20.2812 9.75C19.0386 9.75 18.0312 10.7574 18.0312 12C18.0312 13.2426 19.0386 14.25 20.2812 14.25Z" fill="currentColor"/>
<path d="M20.2812 6.25C21.5239 6.25 22.5312 5.24264 22.5312 4C22.5312 2.75736 21.5239 1.75 20.2812 1.75C19.0386 1.75 18.0312 2.75736 18.0312 4C18.0312 5.24264 19.0386 6.25 20.2812 6.25Z" fill="currentColor"/>
<path d="M20.2812 22.25C21.5239 22.25 22.5312 21.2426 22.5312 20C22.5312 18.7574 21.5239 17.75 20.2812 17.75C19.0386 17.75 18.0312 18.7574 18.0312 20C18.0312 21.2426 19.0386 22.25 20.2812 22.25Z" fill="currentColor"/>
<path d="M4.28125 14.25C5.52389 14.25 6.53125 13.2426 6.53125 12C6.53125 10.7574 5.52389 9.75 4.28125 9.75C3.03861 9.75 2.03125 10.7574 2.03125 12C2.03125 13.2426 3.03861 14.25 4.28125 14.25Z" fill="currentColor"/>
<path d="M19.2812 12.75C19.6912 12.75 20.0312 12.41 20.0312 12C20.0312 11.59 19.6912 11.25 19.2812 11.25H12.0312V7C12.0312 5.42 12.7013 4.75 14.2812 4.75H19.2812C19.6912 4.75 20.0312 4.41 20.0312 4C20.0312 3.59 19.6912 3.25 19.2812 3.25H14.2812C11.8612 3.25 10.5312 4.58 10.5312 7V11.25H5.28125C4.87125 11.25 4.53125 11.59 4.53125 12C4.53125 12.41 4.87125 12.75 5.28125 12.75H10.5312V17C10.5312 19.42 11.8612 20.75 14.2812 20.75H19.2812C19.6912 20.75 20.0312 20.41 20.0312 20C20.0312 19.59 19.6912 19.25 19.2812 19.25H14.2812C12.7013 19.25 12.0312 18.58 12.0312 17V12.75H19.2812Z" fill="currentColor"/>
</svg>

<svg xmlns="http://www.w3.org/2000/svg" width="24" height="24" viewBox="0 0 24 24" fill="none"><path d="M20.281 14.25a2.25 2.25 0 1 0 0-4.5 2.25 2.25 0 0 0 0 4.5zM20.281 6.25a2.25 2.25 0 1 0 0-4.5 2.25 2.25 0 0 0 0 4.5zM20.281 22.25a2.25 2.25 0 1 0 0-4.5 2.25 2.25 0 0 0 0 4.5zM4.281 14.25a2.25 2.25 0 1 0 0-4.5 2.25 2.25 0 0 0 0 4.5z" fill="currentColor"/><path d="M19.281 12.75c.41 0 .75-.34.75-.75s-.34-.75-.75-.75h-7.25V7c0-1.58.67-2.25 2.25-2.25h5c.41 0 .75-.34.75-.75s-.34-.75-.75-.75h-5c-2.42 0-3.75 1.33-3.75 3.75v4.25h-5.25c-.41 0-.75.34-.75.75s.34.75.75.75h5.25V17c0 2.42 1.33 3.75 3.75 3.75h5c.41 0 .75-.34.75-.75s-.34-.75-.75-.75h-5c-1.58 0-2.25-.67-2.25-2.25v-4.25h7.25z" fill="currentColor"/></svg>
